X:1
T:Amnos, 78.78.77
T:Amnos, 78.78.77
T:William Benbow, 1914
T:Public Domain Courtesy of the Cyber Hymnal™
C:William Benbow, 1914
Z:Public Domain
Z:Courtesy of the Cyber Hymnal™
%%score ( 1 2 ) ( 3 4 )
L:1/8
Q:1/4=130
M:3/2
K:F
V:1 treble 
V:2 treble 
V:3 bass 
V:4 bass 
V:1
 F2 [FG]2 | [FA]6 [Ac]2 [Ac]2 [GB]2 | ([FA]4 [EG]4) G2 [FA]2 | [FB]2 [FA]2 [DG]4 [DF]4 | %4
 [EG]4 F4 [DF]2 [EG]2 | [FA]6 [Ac]2 [Ac]2 [GB]2 | ([^FA]4 G4) [EG]2 [EA]2 | %7
 [GB]2 [FA]2 [DG]4 [DF]4 | [EG]4 F4 [FA]2 [EA]2 | [DA]2 [Dd]2 [Gc]4 F4 | %10
 ([DG]4 !fermata![EA]4) D2 [DE]2 | [DF]2 [DG]2 [FA]4 [EG]4 | [CF]8 |] %13
V:2
 F2 x2 | x12 | x8 G2 x2 | x12 | x4 F4 x4 | x12 | x4 G4 x4 | x12 | x4 F4 x4 | x8 F4 | x8 D2 x2 | %11
 x12 | x8 |] %13
V:3
 [F,A,]2 [F,B,]2 | [F,C]6 [A,,C]2 [B,,D]2 [B,,D]2 | [C,C]8 [_E,B,]2 [E,C]2 | %3
 [D,D]2 [D,D]2 [G,B,]4 [D,A,]4 | [C,B,]4 [F,A,]4 [D,A,]2 [C,C]2 | [F,C]6 [A,,C]2 [B,,D]2 [B,,D]2 | %6
 ([D,C]4 [G,B,]4) [C,C]2 [C,C]2 | [G,,D]2 [A,,C]2 [B,,B,]4 [D,A,]4 | [C,B,]4 [F,A,]4 A,2 [G,A,]2 | %9
 [F,A,]2 [F,A,]2 [E,G,]4 [D,A,]4 | ([B,,D]4 !fermata![A,,C]4) [D,F,]2 [D,G,]2 | %11
 [D,A,]2 [D,B,]2 [C,C]4 [C,B,]4 | [F,A,]8 |] %13
V:4
 x4 | x12 | x12 | x12 | x12 | x12 | x12 | x12 | x8 A,2 x2 | x12 | x12 | x12 | x8 |] %13

